src/next/res/da03.svg

<svg height="16" width="16" xmlns="http://www.w3.org/2000/svg" xmlns:xlink="http://www.w3.org/1999/xlink"><filter id="a"><feGaussianBlur stdDeviation="2.0786429"/></filter><radialGradient id="b" cx="108" cy="128.54001" gradientTransform="matrix(.98281247 0 0 .98248353 -1.799998 11.962339)" gradientUnits="userSpaceOnUse" r="139.55859"><stop offset="0" stop-color="#b7b8b9"/><stop offset=".18851049" stop-color="#ececec"/><stop offset=".25718147" stop-color="#fafafa"/><stop offset=".30111277" stop-color="#fff"/><stop offset=".5313" stop-color="#fafafa"/><stop offset=".8449" stop-color="#ebecec"/><stop offset="1" stop-color="#e1e2e3"/></radialGradient><g transform="matrix(.125 0 0 .125 -.003906 0)"><path d="m3.9968244 21.75119.00317 86.469h117.9650256l-.003-86.469z" filter="url(#a)" opacity=".758364" transform="matrix(.98281249 0 0 .98281249 2.131251 .657034)"/><path d="m8.0250049 24 .00312 80.06875h111.1770051l.82924-.82925-.00312-79.2395z" fill="#fff" stroke-width=".982812"/><path d="m16.870317 31.8625c-.541529 0-.982839.441465-.982812.982812l.0031 63.360938h95.052735c1.14219.0349 1.22852-1.5726 1.22851-1.81206l-.003-61.548878c-.00003-.541347-.4403-.982812-.98281-.982812z" fill="url(#b)" stroke-width=".982812"/><g fill="#5c5c5c" stroke-width="1.572556"><path d="m54.361706 84.543291-31.95434-14.467516v-4.151548l31.95434-14.467517v4.528962l-26.418943 12.014329 26.418943 12.014328z"/><path d="m73.638292 51.45671 31.954338 14.467517v4.151548l-31.954338 14.467516v-4.528962l26.418938-12.014328-26.418938-12.014329z"/></g></g></svg>

<?xml version="1.0" encoding="UTF-8" standalone="no"?>
<svg
   xmlns:dc="http://purl.org/dc/elements/1.1/"
   xmlns:cc="http://creativecommons.org/ns#"
   xmlns:rdf="http://www.w3.org/1999/02/22-rdf-syntax-ns#"
   xmlns:svg="http://www.w3.org/2000/svg"
   xmlns="http://www.w3.org/2000/svg"
   xmlns:sodipodi="http://sodipodi.sourceforge.net/DTD/sodipodi-0.dtd"
   xmlns:inkscape="http://www.inkscape.org/namespaces/inkscape"
   height="16"
   width="16"
   version="1.1"
   id="svg4801"
   sodipodi:docname="da03.svg"
   inkscape:version="0.92.4 (unknown)"
   inkscape:export-filename="/home/rizmut/Dokumen/Rizmut/Github/libreoffice-style-karasa-jaga/build/images_karasa_jaga/res/da03.png"
   inkscape:export-xdpi="96"
   inkscape:export-ydpi="96">
  <metadata
     id="metadata4807">
    <rdf:RDF>
      <cc:Work
         rdf:about="">
        <dc:format>image/svg+xml</dc:format>
        <dc:type
           rdf:resource="http://purl.org/dc/dcmitype/StillImage" />
        <dc:title></dc:title>
      </cc:Work>
    </rdf:RDF>
  </metadata>
  <defs
     id="defs4805" />
  <sodipodi:namedview
     pagecolor="#ffffff"
     bordercolor="#666666"
     borderopacity="1"
     objecttolerance="10"
     gridtolerance="10"
     guidetolerance="10"
     inkscape:pageopacity="0"
     inkscape:pageshadow="2"
     inkscape:window-width="640"
     inkscape:window-height="480"
     id="namedview4803"
     showgrid="true"
     inkscape:zoom="21.036427"
     inkscape:cx="8.9701729"
     inkscape:cy="12.367755"
     inkscape:current-layer="g22869">
    <inkscape:grid
       type="xygrid"
       id="grid22858" />
  </sodipodi:namedview>
  <filter
     id="a">
    <feGaussianBlur
       stdDeviation="2.0786429"
       id="feGaussianBlur4773" />
  </filter>
  <radialGradient
     id="b"
     cx="108"
     cy="128.54001"
     gradientTransform="matrix(0.98281247,0,0,0.98248353,-1.799998,11.962339)"
     gradientUnits="userSpaceOnUse"
     r="139.55859">
    <stop
       offset="0"
       stop-color="#b7b8b9"
       id="stop4776" />
    <stop
       offset=".18851049"
       stop-color="#ececec"
       id="stop4778" />
    <stop
       offset=".25718147"
       stop-color="#fafafa"
       id="stop4780" />
    <stop
       offset=".30111277"
       stop-color="#fff"
       id="stop4782" />
    <stop
       offset=".5313"
       stop-color="#fafafa"
       id="stop4784" />
    <stop
       offset=".8449"
       stop-color="#ebecec"
       id="stop4786" />
    <stop
       offset="1"
       stop-color="#e1e2e3"
       id="stop4788" />
  </radialGradient>
  <g
     id="g22869"
     transform="matrix(0.125,0,0,0.125,-0.00390624,0)">
    <path
       id="path4791"
       transform="matrix(0.98281249,0,0,0.98281249,2.131251,0.657034)"
       d="m 3.9968244,21.75119 0.00317,86.469 H 121.96502 l -0.003,-86.469 z"
       inkscape:connector-curvature="0"
       style="opacity:0.75836403;filter:url(#a)"
       sodipodi:nodetypes="ccccc" />
    <path
       id="path4793"
       d="m 8.0250049,24 0.00312,80.06875 H 119.20513 L 120.03437,103.2395 120.03125,24 Z"
       inkscape:connector-curvature="0"
       style="fill:#ffffff;stroke-width:0.98281199"
       sodipodi:nodetypes="cccccc" />
    <path
       id="path4795"
       d="m 16.870317,31.8625 c -0.541529,0 -0.982839,0.441465 -0.982812,0.982812 l 0.0031,63.360938 h 95.052735 c 1.14219,0.0349 1.22852,-1.5726 1.22851,-1.81206 l -0.003,-61.548878 c -3e-5,-0.541347 -0.4403,-0.982812 -0.98281,-0.982812 z"
       style="fill:url(#b);stroke-width:0.98281199"
       inkscape:connector-curvature="0"
       sodipodi:nodetypes="ssccssss" />
    <g
       id="text4799"
       style="font-size:62.90224457px;font-family:sans-serif;letter-spacing:0;word-spacing:0;fill:#5c5c5c;stroke-width:1.57255602"
       aria-label="&lt; &gt;">
      <path
         id="path22853"
         style="font-family:FreeSerif;fill:#5c5c5c;stroke-width:1.57255602"
         d="M 54.361706,84.543291 22.407366,70.075775 V 65.924227 L 54.361706,51.45671 v 4.528962 L 27.942763,68.000001 54.361706,80.014329 Z"
         inkscape:connector-curvature="0" />
      <path
         id="path22855"
         style="font-family:FreeSerif;fill:#5c5c5c;stroke-width:1.57255602"
         d="m 73.638292,51.45671 31.954338,14.467517 v 4.151548 L 73.638292,84.543291 V 80.014329 L 100.05723,68.000001 73.638292,55.985672 Z"
         inkscape:connector-curvature="0" />
    </g>
  </g>
</svg>
